packages/sources/icons/src/vitamix/arrow-up-down-fill.svg

<svg width="16" height="16" viewBox="0 0 16 16" fill="none" xmlns="http://www.w3.org/2000/svg">
<path fill-rule="evenodd" clip-rule="evenodd" d="M5.33399 5.33333H7.99999L4.66666 2L1.33333 5.33333H3.99999V13.3333H5.33333L5.33399 5.33333ZM11.3333 14L14.6667 10.6667H12V2.66667H10.6667V10.6667H7.99999L11.3333 14Z" fill="#001018"/>
</svg>

<svg width="16" height="16" fill="none" xmlns="http://www.w3.org/2000/svg"><path fill-rule="evenodd" clip-rule="evenodd" d="M5.334 5.333H8L4.667 2 1.333 5.333H4v8h1.333l.001-8zm6 8.667 3.333-3.333H12v-8h-1.333v8H8L11.333 14z" fill="#001018"/></svg>
